icons/kali-light.svg

<svg width="256" height="256" viewBox="0 0 256 256" fill="none" xmlns="http://www.w3.org/2000/svg">
<g clip-path="url(#clip0_33_889)">
<path d="M196 0H60C26.8629 0 0 26.8629 0 60V196C0 229.137 26.8629 256 60 256H196C229.137 256 256 229.137 256 196V60C256 26.8629 229.137 0 196 0Z" fill="#F4F2ED"/>
<g clip-path="url(#clip1_33_889)">
<path d="M127.999 198.984C167.202 198.984 198.983 167.204 198.983 128C198.983 88.7965 167.202 57.0157 127.999 57.0157C88.7949 57.0157 57.0142 88.7965 57.0142 128C57.0142 167.204 88.7949 198.984 127.999 198.984Z" fill="url(#paint0_linear_33_889)"/>
<path opacity="0.3" d="M198.913 126.039C198.55 144.612 190.921 162.302 177.663 175.314C164.405 188.326 146.575 195.622 127.998 195.637C109.519 195.625 91.7717 188.408 78.5295 175.518C65.2873 162.628 57.5939 145.082 57.0844 126.609C57.0568 127.072 57.0337 127.535 57.0151 127.998C57.0151 146.824 64.4938 164.879 77.806 178.192C91.1181 191.504 109.173 198.982 128 198.982C137.321 198.982 146.552 197.146 155.164 193.579C163.776 190.012 171.602 184.783 178.193 178.192C184.785 171.6 190.013 163.775 193.581 155.163C197.148 146.55 198.984 137.32 198.984 127.998C198.97 127.344 198.947 126.691 198.915 126.038L198.913 126.039Z" fill="black"/>
<path opacity="0.1" d="M127.999 57.0162C109.172 57.0162 91.1172 64.4949 77.805 77.8071C64.4929 91.1192 57.0142 109.174 57.0142 128.001C57.0282 128.653 57.0513 129.306 57.0834 129.958C57.4473 111.386 65.0767 93.6964 78.3345 80.6855C91.5923 67.6746 109.422 60.3789 127.998 60.3641C146.477 60.3753 164.223 67.5924 177.465 80.4814C190.707 93.3705 198.401 110.915 198.912 129.388C198.939 128.926 198.962 128.464 198.981 128.002C198.981 118.68 197.145 109.45 193.577 100.838C190.01 92.2253 184.782 84.4001 178.19 77.8086C171.598 71.2171 163.773 65.9884 155.161 62.4211C146.549 58.8538 137.318 57.0177 127.996 57.0177L127.999 57.0162Z" fill="white"/>
<path opacity="0.3" d="M56.1008 79.6485C44.6078 79.6616 37.016 80.5869 36.9531 80.5946C36.9529 80.5946 36.9096 80.5985 36.9096 80.5985C36.1593 80.6848 36.2547 81.8025 37.0088 81.7604C37.0088 81.7604 78.7979 79.7861 112.294 93.2487C113.489 98.3616 116.645 106.199 118.51 110.364C115.971 112.106 113.249 113.875 111.008 116.681C108.657 119.626 106.88 123.691 106.406 129.907C105.447 142.515 116.26 153.553 129.634 153.893C142.036 154.553 150.468 154.644 160.733 159.964C165.527 162.618 169.992 168.073 173.326 174.737C176.662 181.404 178.876 189.27 179.273 196.688C179.31 197.417 180.382 197.43 180.438 196.703C180.439 196.68 180.437 196.649 180.438 196.626C180.869 190.946 180.03 182.154 176.625 173.79C173.773 166.784 169.061 160.114 161.817 155.931C172.229 158.774 178.189 164.059 181.616 168.887C185.547 174.428 186.128 179.358 186.125 179.331C186.207 180.028 187.224 180.012 187.285 179.313C187.285 179.313 187.802 173.269 183.631 166.609C179.461 159.95 170.607 152.671 152.149 149.962C147.474 149.276 141.574 148.749 135.594 148.734C135.591 148.734 135.588 148.734 135.585 148.734C121.116 148.925 113.821 140.678 112.686 132.218C112.118 127.989 113.111 123.704 115.568 120.384C118.025 117.065 121.936 114.688 127.323 114.266H127.326C136.172 113.536 146.962 118.321 157.573 123.258C157.562 124.484 157.671 125.721 158.567 126.841C159.167 127.591 160.249 128.112 161.351 128.632C162.452 129.152 163.586 129.624 164.036 129.882C165.058 130.469 168.469 132.656 170.479 135.273C170.737 135.61 171.257 135.567 171.457 135.193C171.467 135.174 171.773 134.821 172.176 134.484C172.579 134.146 173.091 133.762 173.59 133.403C174.587 132.685 175.531 132.07 175.531 132.07C176.022 131.75 175.787 130.986 175.2 130.998C175.2 130.998 175.057 131.006 174.599 130.919C174.141 130.831 173.413 130.647 172.377 130.26C171.424 129.904 170.286 129.133 169.407 128.435C168.968 128.087 168.59 127.757 168.323 127.51C168.291 127.48 168.278 127.466 168.249 127.439C168.528 127.188 168.567 126.786 168.51 126.534C168.453 126.276 168.34 126.067 168.214 125.863C167.962 125.456 167.642 125.094 167.421 124.872L167.42 124.872C167.452 124.904 167.354 124.79 167.256 124.646C167.157 124.501 167.03 124.306 166.887 124.081C166.6 123.631 166.249 123.058 165.908 122.494C165.225 121.366 164.609 120.317 164.549 120.218C164.548 120.216 164.401 119.905 164.114 119.714C164.069 119.684 164.02 119.66 163.968 119.644C163.645 119.54 163.389 119.564 163.057 119.581C162.725 119.598 162.357 119.637 162.008 119.682C161.424 119.757 161.062 119.822 160.904 119.85C160.509 119.642 157.424 117.933 156.291 114.451C156.082 113.813 155.136 113.976 155.153 114.648C155.159 114.876 154.813 115.558 154.888 116.589C153.518 115.763 152.339 114.451 151.312 111.748C151.123 111.25 150.42 111.244 150.224 111.74C149.831 112.729 149.807 113.556 149.887 114.198C148.585 113.586 146.453 112.239 145.989 109.562C145.889 108.989 145.105 108.898 144.877 109.434C144.494 110.336 144.46 111.083 144.525 111.685C142.099 110.644 135.417 108.211 125.445 108.157C123.52 107.98 121.991 107.017 120.734 105.573C119.478 104.129 118.524 102.203 117.848 100.21C117.173 98.216 116.773 96.1551 116.592 94.4551C116.412 92.7549 116.488 91.3494 116.614 90.9464C116.698 90.6777 116.578 90.3872 116.329 90.2559C116.329 90.2559 104.135 83.841 80.2964 81.0211C71.3582 79.9638 63.0265 79.6407 56.1019 79.6486L56.1008 79.6485ZM83.9398 92.352C80.3075 92.3794 76.4086 92.5148 72.3117 92.806C50.4266 94.3615 28.3938 102.008 28.3938 102.008C27.6889 102.251 28.0043 103.308 28.7272 103.125C28.7272 103.125 73.6647 91.8463 111.204 98.4573C111.237 98.4633 111.271 98.4663 111.304 98.4664H111.306C111.699 98.4663 111.979 98.0856 111.863 97.7103L110.882 94.5441C110.817 94.3354 110.641 94.1802 110.426 94.142C110.426 94.142 99.6783 92.234 83.9408 92.3522C83.9392 92.3522 83.9377 92.3522 83.9362 92.3522L83.9398 92.352ZM110.624 99.0958C106.761 99.0794 94.8758 99.5661 77.0238 105.152C54.6199 112.162 41.8684 122.128 41.8684 122.128C41.3065 122.573 41.8852 123.443 42.5123 123.096C42.5123 123.096 75.6853 104.595 113.044 103.545C113.434 103.534 113.703 103.15 113.581 102.779L112.507 99.5298C112.433 99.3044 112.229 99.1466 111.992 99.1308C111.992 99.1308 111.517 99.0995 110.625 99.0957L110.624 99.0958ZM135.05 99.0416C134.478 99.05 134.259 99.7915 134.734 100.11H134.735C134.769 100.133 134.806 100.152 134.844 100.167C145.089 104.332 153.975 109.838 160.863 117.406C160.869 117.412 160.876 117.419 160.882 117.425L160.883 117.426C161.002 117.545 161.166 117.607 161.333 117.596L163.005 117.486C163.479 117.455 163.719 116.9 163.417 116.534C163.417 116.534 153.738 104.804 135.283 99.0875C135.282 99.0867 135.28 99.0852 135.277 99.0844C135.268 99.0809 135.259 99.0776 135.249 99.0745C135.244 99.0725 135.238 99.071 135.233 99.0691C135.174 99.0503 135.112 99.0409 135.05 99.0416ZM164.222 123.739C164.557 123.806 165.189 125.05 165.77 125.938C165.821 126.011 165.873 126.087 165.922 126.148C165.922 126.154 165.922 126.157 165.926 126.163C165.992 126.256 166.057 126.353 166.12 126.431C166.152 126.617 166.205 126.731 165.77 126.641C165.733 126.45 165.671 126.395 165.671 126.395C165.671 126.395 164.621 125.771 164.3 125.328C163.978 124.885 163.921 124.111 164.078 123.817C164.116 123.752 164.165 123.728 164.222 123.739Z" fill="black"/>
<path d="M56.1015 77.8867C44.5921 77.8999 36.9808 78.8322 36.9808 78.8322C36.9808 78.8322 79.0628 76.8125 112.774 90.4608C113.92 95.5865 117.367 104.123 119.224 108.227C113.911 111.9 107.919 115.355 106.987 127.606C106.054 139.857 116.587 150.633 129.648 150.965C142.051 151.626 150.62 151.72 161.006 157.105C170.92 162.587 179.05 179.29 179.854 194.313C180.723 183.167 176.54 159.197 157.021 151.918C184.297 156.691 186.702 176.908 186.702 176.916C186.702 176.916 188.736 153.574 152.063 148.193C147.415 147.511 141.537 146.986 135.591 146.971C106.198 147.359 105.127 113.07 127.275 111.339C136.455 110.581 147.414 115.533 158.129 120.523C158.089 121.854 158.145 123.036 159.019 124.129C159.893 125.222 163.251 126.413 164.324 127.029C165.396 127.645 168.833 129.83 170.94 132.571C171.396 131.717 175.21 129.234 175.21 129.234C175.21 129.234 174.297 129.254 172.171 128.46C170.045 127.665 167.522 125.261 167.463 125.122C167.403 124.983 167.363 124.765 167.86 124.665C168.237 124.348 167.383 123.315 167.006 122.937C166.628 122.56 164.105 118.269 164.046 118.17C163.986 118.071 163.966 117.971 163.788 117.852C163.231 117.673 160.788 118.11 160.788 118.11C160.788 118.11 157.029 116.264 155.734 112.285C155.753 112.982 155.09 113.743 155.734 115.345C153.775 114.516 152.092 113.102 150.764 109.608C149.974 111.595 150.764 112.859 150.764 112.859C150.764 112.859 146.151 111.569 145.412 107.314C144.602 109.224 145.412 110.373 145.412 110.373C145.412 110.373 137.89 106.448 125.391 106.391C117.023 105.624 115.281 90.903 116.056 88.4249C116.056 88.4249 103.986 82.0635 80.2267 79.2534C71.3169 78.1994 63.0075 77.8769 56.1017 77.8848L56.1015 77.8867ZM83.9437 90.5902C80.3227 90.6175 76.4359 90.7526 72.3523 91.0429C50.5746 92.5908 28.5867 100.214 28.5867 100.214C28.5867 100.214 73.5789 88.8933 111.309 95.5374H111.31L110.329 92.3711C110.329 92.3711 99.6359 90.4719 83.9453 90.5901L83.9437 90.5902ZM110.621 97.3336C106.812 97.3175 94.9878 97.7964 77.1972 103.363C54.8832 110.345 42.2277 120.242 42.2277 120.242C42.2277 120.242 75.4859 101.672 113.025 100.617L111.951 97.3681C111.951 97.3681 111.499 97.3377 110.62 97.3339L110.621 97.3336ZM135.058 97.2791C145.362 101.468 154.331 107.018 161.294 114.667L161.295 114.668L162.967 114.559C162.967 114.559 153.389 102.939 135.058 97.2791ZM163.461 119.616L165.512 121.127C165.769 120.681 166.804 123.496 167.435 124.278C167.461 124.434 166.387 125.689 166.022 125.614C165.991 125.453 164.323 124.971 164.323 124.971C164.323 124.971 162.427 123.826 162.157 123.454C161.886 123.082 163.329 119.863 163.461 119.616Z" fill="white" stroke="white" stroke-width="2.9864" stroke-linejoin="round"/>
<path d="M56.1015 77.8867C44.5921 77.8999 36.9808 78.8322 36.9808 78.8322C36.9808 78.8322 79.0628 76.8125 112.774 90.4608C113.92 95.5865 117.367 104.123 119.224 108.227C113.911 111.9 107.919 115.355 106.987 127.606C106.054 139.857 116.587 150.633 129.648 150.965C142.051 151.626 150.62 151.72 161.006 157.105C170.92 162.587 179.05 179.29 179.854 194.313C180.723 183.167 176.54 159.197 157.021 151.918C184.297 156.691 186.702 176.908 186.702 176.916C186.702 176.916 188.736 153.574 152.063 148.193C147.415 147.511 141.537 146.986 135.591 146.971C106.198 147.359 105.127 113.07 127.275 111.339C136.455 110.581 147.414 115.533 158.129 120.523C158.089 121.854 158.145 123.036 159.019 124.129C159.893 125.222 163.251 126.413 164.324 127.029C165.396 127.645 168.833 129.83 170.94 132.571C171.396 131.717 175.21 129.234 175.21 129.234C175.21 129.234 174.297 129.254 172.171 128.46C170.045 127.665 167.522 125.261 167.463 125.122C167.403 124.983 167.363 124.765 167.86 124.665C168.237 124.348 167.383 123.315 167.006 122.937C166.628 122.56 164.105 118.269 164.046 118.17C163.986 118.071 163.966 117.971 163.788 117.852C163.231 117.673 160.788 118.11 160.788 118.11C160.788 118.11 157.029 116.264 155.734 112.285C155.753 112.982 155.09 113.743 155.734 115.345C153.775 114.516 152.092 113.102 150.764 109.608C149.974 111.595 150.764 112.859 150.764 112.859C150.764 112.859 146.151 111.569 145.412 107.314C144.602 109.224 145.412 110.373 145.412 110.373C145.412 110.373 137.89 106.448 125.391 106.391C117.023 105.624 115.281 90.903 116.056 88.4249C116.056 88.4249 103.986 82.0635 80.2267 79.2534C71.3169 78.1994 63.0075 77.8769 56.1017 77.8848L56.1015 77.8867ZM83.9437 90.5902C80.3227 90.6175 76.4359 90.7526 72.3523 91.0429C50.5746 92.5908 28.5867 100.214 28.5867 100.214C28.5867 100.214 73.5789 88.8933 111.309 95.5374H111.31L110.329 92.3711C110.329 92.3711 99.6363 90.5901 83.9453 90.5901L83.9437 90.5902ZM110.621 97.3336C106.812 97.3175 94.9878 97.7964 77.1972 103.363C54.8832 110.345 42.2277 120.242 42.2277 120.242C42.2277 120.242 75.4859 101.672 113.025 100.617L111.951 97.3681C111.951 97.3681 111.499 97.3377 110.62 97.3339L110.621 97.3336ZM135.058 97.2791C145.362 101.468 154.331 107.018 161.294 114.667L161.295 114.668L162.967 114.559C162.967 114.559 153.389 102.939 135.058 97.2791ZM164.223 121.393C164.558 121.46 165.191 122.704 165.771 123.592C165.822 123.664 165.874 123.741 165.923 123.802C165.924 123.807 165.924 123.811 165.925 123.816C165.991 123.91 166.057 124.007 166.12 124.085C166.152 124.271 166.204 124.384 165.77 124.295C165.733 124.104 165.67 124.049 165.67 124.049C165.67 124.049 164.621 123.424 164.299 122.982C163.977 122.539 163.921 121.765 164.078 121.471C164.116 121.405 164.165 121.381 164.223 121.393Z" fill="white"/>
</g>
</g>
<defs>
<linearGradient id="paint0_linear_33_889" x1="98.3323" y1="166.418" x2="144.69" y2="120.06" gradientUnits="userSpaceOnUse">
<stop stop-color="#249EFF"/>
<stop offset="1" stop-color="#2777FF"/>
</linearGradient>
<clipPath id="clip0_33_889">
<rect width="256" height="256" fill="white"/>
</clipPath>
<clipPath id="clip1_33_889">
<rect width="200" height="200" fill="white" transform="translate(28 28)"/>
</clipPath>
</defs>
</svg>

<svg xmlns="http://www.w3.org/2000/svg" width="256" height="256" fill="none"><g clip-path="url(#clip0_33_889)"><path fill="#F4F2ED" d="M196 0H60C26.863 0 0 26.863 0 60v136c0 33.137 26.863 60 60 60h136c33.137 0 60-26.863 60-60V60c0-33.137-26.863-60-60-60"/><g clip-path="url(#clip1_33_889)"><path fill="url(#paint0_linear_33_889)" d="M127.999 198.984c39.203 0 70.984-31.78 70.984-70.984s-31.781-70.984-70.984-70.984c-39.204 0-70.985 31.78-70.985 70.984s31.78 70.984 70.985 70.984"/><path fill="#000" d="M198.913 126.039a70.985 70.985 0 0 1-70.915 69.598 70.99 70.99 0 0 1-70.914-69.028q-.04.695-.069 1.389A70.987 70.987 0 0 0 128 198.982a70.99 70.99 0 0 0 65.581-43.819 71 71 0 0 0 5.403-27.165 71 71 0 0 0-.069-1.96z" opacity=".3"/><path fill="#fff" d="M127.999 57.016a70.984 70.984 0 0 0-70.985 70.985q.02.978.07 1.957a70.985 70.985 0 0 1 70.914-69.594 70.983 70.983 0 0 1 70.914 69.024q.04-.693.069-1.386a71 71 0 0 0-5.404-27.164 70.97 70.97 0 0 0-38.416-38.417 71 71 0 0 0-27.165-5.403z" opacity=".1"/><path fill="#000" d="M56.1 79.649c-11.492.013-19.084.938-19.147.946l-.043.004c-.75.086-.655 1.203.099 1.161 0 0 41.789-1.974 75.285 11.489 1.195 5.113 4.351 12.95 6.216 17.115-2.539 1.742-5.261 3.511-7.502 6.317-2.351 2.945-4.128 7.01-4.602 13.226-.959 12.608 9.854 23.646 23.228 23.986 12.402.66 20.834.751 31.099 6.071 4.794 2.654 9.259 8.109 12.593 14.773 3.336 6.667 5.55 14.533 5.947 21.951.037.729 1.109.742 1.165.015v-.077c.431-5.68-.408-14.472-3.813-22.836-2.852-7.006-7.564-13.676-14.808-17.859 10.412 2.843 16.372 8.128 19.799 12.956 3.931 5.541 4.512 10.471 4.509 10.444.082.697 1.099.681 1.16-.018 0 0 .517-6.044-3.654-12.704-4.17-6.659-13.024-13.938-31.482-16.647a120 120 0 0 0-16.555-1.228h-.009c-14.469.191-21.764-8.056-22.899-16.516-.568-4.229.425-8.514 2.882-11.834 2.457-3.319 6.368-5.696 11.755-6.118h.003c8.846-.73 19.636 4.055 30.247 8.992-.011 1.226.098 2.463.994 3.583.6.75 1.682 1.271 2.784 1.791s2.235.992 2.685 1.25c1.022.587 4.433 2.774 6.443 5.391a.584.584 0 0 0 .978-.08c.01-.019.316-.372.719-.709.403-.338.915-.722 1.414-1.081.997-.718 1.941-1.333 1.941-1.333.491-.32.256-1.084-.331-1.072 0 0-.143.008-.601-.079-.458-.088-1.186-.272-2.222-.659-.953-.356-2.091-1.127-2.97-1.825a19 19 0 0 1-1.084-.925l-.074-.071c.279-.251.318-.653.261-.905a2.1 2.1 0 0 0-.296-.671 6 6 0 0 0-.793-.991h-.001c.032.032-.066-.082-.164-.226-.099-.145-.226-.34-.369-.565a83 83 0 0 1-.979-1.587c-.683-1.128-1.299-2.177-1.359-2.276-.001-.002-.148-.313-.435-.504a.6.6 0 0 0-.146-.07c-.323-.104-.579-.08-.911-.063s-.7.056-1.049.101c-.584.075-.946.14-1.104.168-.395-.208-3.48-1.917-4.613-5.399-.209-.638-1.155-.475-1.138.197.006.228-.34.91-.265 1.941-1.37-.826-2.549-2.138-3.576-4.841a.583.583 0 0 0-1.088-.008c-.393.989-.417 1.816-.337 2.458-1.302-.612-3.434-1.959-3.898-4.636-.1-.573-.884-.664-1.112-.128-.383.902-.417 1.649-.352 2.251-2.426-1.041-9.108-3.474-19.08-3.528-1.925-.177-3.454-1.14-4.711-2.584-1.256-1.444-2.21-3.37-2.886-5.363a27.6 27.6 0 0 1-1.256-5.755c-.18-1.7-.104-3.106.022-3.509a.584.584 0 0 0-.285-.69s-12.194-6.415-36.033-9.235c-8.938-1.057-17.27-1.38-24.194-1.372zm27.84 12.703c-3.632.027-7.531.163-11.628.454-21.885 1.556-43.918 9.202-43.918 9.202-.705.243-.39 1.3.333 1.117 0 0 44.938-11.279 82.477-4.668a1 1 0 0 0 .1.01h.002a.584.584 0 0 0 .557-.757l-.981-3.166a.59.59 0 0 0-.456-.402s-10.748-1.908-26.485-1.79h-.005zm26.684 6.744c-3.863-.017-15.748.47-33.6 6.056-22.404 7.01-35.156 16.976-35.156 16.976-.562.445.017 1.315.644.968 0 0 33.173-18.501 70.532-19.551a.583.583 0 0 0 .537-.766l-1.074-3.25a.58.58 0 0 0-.515-.398s-.475-.031-1.367-.035zm24.426-.054c-.572.008-.791.75-.316 1.068h.001a.6.6 0 0 0 .109.057c10.245 4.165 19.131 9.671 26.019 17.239l.019.019.001.001a.58.58 0 0 0 .45.17l1.672-.11a.583.583 0 0 0 .412-.952s-9.679-11.73-28.134-17.446l-.006-.004-.028-.01-.016-.005a.6.6 0 0 0-.183-.027m29.172 24.697c.335.067.967 1.311 1.548 2.199.051.073.103.149.152.21q-.001.007.004.015c.066.093.131.19.194.268.032.186.085.3-.35.21-.037-.191-.099-.246-.099-.246s-1.05-.624-1.371-1.067c-.322-.443-.379-1.217-.222-1.511q.058-.096.144-.078" opacity=".3"/><path fill="#fff" stroke="#fff" stroke-linejoin="round" stroke-width="2.986" d="M56.102 77.887c-11.51.013-19.121.945-19.121.945s42.082-2.02 75.793 11.629c1.146 5.126 4.593 13.662 6.45 17.766-5.313 3.673-11.305 7.128-12.237 19.379s9.6 23.027 22.661 23.359c12.403.661 20.972.755 31.358 6.14 9.914 5.482 18.044 22.185 18.848 37.208.869-11.146-3.314-35.116-22.833-42.395 27.276 4.773 29.681 24.99 29.681 24.998 0 0 2.034-23.342-34.639-28.723a119 119 0 0 0-16.472-1.222c-29.393.388-30.464-33.901-8.316-35.632 9.18-.758 20.139 4.194 30.854 9.184-.04 1.331.016 2.513.89 3.606s4.232 2.284 5.305 2.9 4.509 2.801 6.616 5.542c.456-.854 4.27-3.337 4.27-3.337s-.913.02-3.039-.774c-2.126-.795-4.649-3.199-4.708-3.338s-.1-.357.397-.457c.377-.317-.477-1.35-.854-1.728-.378-.377-2.901-4.668-2.96-4.767s-.08-.199-.258-.318c-.557-.179-3 .258-3 .258s-3.759-1.846-5.054-5.825c.019.697-.644 1.458 0 3.06-1.959-.829-3.642-2.243-4.97-5.737-.79 1.987 0 3.251 0 3.251s-4.613-1.29-5.352-5.545c-.81 1.91 0 3.059 0 3.059s-7.522-3.925-20.021-3.982c-8.368-.767-10.11-15.488-9.335-17.966 0 0-12.07-6.361-35.83-9.172-8.91-1.054-17.218-1.376-24.124-1.368zM83.944 90.59c-3.621.028-7.508.163-11.592.453-21.777 1.548-43.765 9.171-43.765 9.171s44.992-11.32 82.722-4.677h.001l-.981-3.166s-10.693-1.9-26.384-1.78zm26.677 6.744c-3.809-.017-15.633.462-33.424 6.029-22.314 6.982-34.97 16.879-34.97 16.879s33.259-18.57 70.798-19.625l-1.074-3.249s-.452-.03-1.331-.034zm24.437-.055c10.304 4.189 19.273 9.739 26.236 17.388l.001.001 1.672-.109s-9.578-11.62-27.909-17.28Zm28.403 22.337 2.051 1.511c.257-.446 1.292 2.369 1.923 3.151.026.156-1.048 1.411-1.413 1.336-.031-.161-1.699-.643-1.699-.643s-1.896-1.145-2.166-1.517c-.271-.372 1.172-3.591 1.304-3.838Z"/><path fill="#fff" d="M56.102 77.887c-11.51.013-19.121.945-19.121.945s42.082-2.02 75.793 11.629c1.146 5.126 4.593 13.662 6.45 17.766-5.313 3.673-11.305 7.128-12.237 19.379s9.6 23.027 22.661 23.359c12.403.661 20.972.755 31.358 6.14 9.914 5.482 18.044 22.185 18.848 37.208.869-11.146-3.314-35.116-22.833-42.395 27.276 4.773 29.681 24.99 29.681 24.998 0 0 2.034-23.342-34.639-28.723a119 119 0 0 0-16.472-1.222c-29.393.388-30.464-33.901-8.316-35.632 9.18-.758 20.139 4.194 30.854 9.184-.04 1.331.016 2.513.89 3.606s4.232 2.284 5.305 2.9 4.509 2.801 6.616 5.542c.456-.854 4.27-3.337 4.27-3.337s-.913.02-3.039-.774c-2.126-.795-4.649-3.199-4.708-3.338s-.1-.357.397-.457c.377-.317-.477-1.35-.854-1.728-.378-.377-2.901-4.668-2.96-4.767s-.08-.199-.258-.318c-.557-.179-3 .258-3 .258s-3.759-1.846-5.054-5.825c.019.697-.644 1.458 0 3.06-1.959-.829-3.642-2.243-4.97-5.737-.79 1.987 0 3.251 0 3.251s-4.613-1.29-5.352-5.545c-.81 1.91 0 3.059 0 3.059s-7.522-3.925-20.021-3.982c-8.368-.767-10.11-15.488-9.335-17.966 0 0-12.07-6.361-35.83-9.172-8.91-1.054-17.218-1.376-24.124-1.368zM83.944 90.59c-3.621.028-7.508.163-11.592.453-21.777 1.548-43.765 9.171-43.765 9.171s44.992-11.32 82.722-4.677h.001l-.981-3.166s-10.693-1.78-26.384-1.78zm26.677 6.744c-3.809-.017-15.633.462-33.424 6.029-22.314 6.982-34.97 16.879-34.97 16.879s33.259-18.57 70.798-19.625l-1.074-3.249s-.452-.03-1.331-.034zm24.437-.055c10.304 4.189 19.273 9.739 26.236 17.388l.001.001 1.672-.109s-9.578-11.62-27.909-17.28m29.165 24.114c.335.067.968 1.311 1.548 2.199.051.072.103.149.152.21l.002.014c.066.094.132.191.195.269.032.186.084.299-.35.21-.037-.191-.1-.246-.1-.246s-1.049-.625-1.371-1.067c-.322-.443-.378-1.217-.221-1.511q.058-.097.145-.078"/></g></g><defs><clipPath id="clip0_33_889"><path fill="#fff" d="M0 0h256v256H0z"/></clipPath><clipPath id="clip1_33_889"><path fill="#fff" d="M28 28h200v200H28z"/></clipPath><linearGradient id="paint0_linear_33_889" x1="98.332" x2="144.69" y1="166.418" y2="120.06" gradientUnits="userSpaceOnUse"><stop stop-color="#249EFF"/><stop offset="1" stop-color="#2777FF"/></linearGradient></defs></svg>
